brand_assets/business_categories/property_category.svg

<svg width="302" height="189" viewBox="0 0 302 189" fill="none" xmlns="http://www.w3.org/2000/svg">
<path d="M128.115 102.008C125.71 102.008 123.759 100.059 123.759 97.6528V54.3763C123.759 46.1352 117.055 39.43 108.815 39.43H105.219C102.814 39.43 100.863 37.4803 100.863 35.0744C100.863 32.6684 102.814 30.7188 105.219 30.7188H108.815C121.859 30.7188 132.471 41.3312 132.471 54.3763V97.6528C132.471 100.059 130.52 102.008 128.115 102.008Z" stroke="white" stroke-width="1.4815" stroke-linecap="round" stroke-linejoin="round"/>
<path d="M18.2061 30.0234H2.57139C1.10866 30.0234 0.239491 31.658 1.05728 32.8709L23.3993 66.0179" stroke="white" stroke-width="1.4815" stroke-linecap="round" stroke-linejoin="round"/>
<path d="M94.7614 102.008H31.6289V114.148H94.7614V102.008Z" stroke="white" stroke-width="1.4815" stroke-linecap="round" stroke-linejoin="round"/>
<path d="M31.9534 102.011H94.437C96.3688 102.011 98.0064 100.593 98.2829 98.681L108.188 30.0234H18.2031L28.1084 98.681C28.384 100.593 30.0215 102.011 31.9534 102.011Z" stroke="white" stroke-width="1.4815" stroke-linecap="round" stroke-linejoin="round"/>
<path d="M51.5644 102.011L47.9219 30.0234" stroke="white" stroke-width="1.4815" stroke-linecap="round" stroke-linejoin="round"/>
<path d="M74.8281 102.011L78.4706 30.0234" stroke="white" stroke-width="1.4815" stroke-linecap="round" stroke-linejoin="round"/>
<path d="M94.4391 114.148H31.9555C30.0237 114.148 28.3861 115.568 28.1095 117.479L18.8452 181.696C18.5074 184.038 20.3238 186.135 22.6912 186.135H103.703C106.07 186.135 107.887 184.038 107.549 181.696L98.2851 117.479C98.0095 115.567 96.371 114.148 94.4391 114.148Z" stroke="white" stroke-width="1.4815" stroke-linecap="round" stroke-linejoin="round"/>
<path d="M74.8281 114.148L78.4706 186.136" stroke="white" stroke-width="1.4815" stroke-linecap="round" stroke-linejoin="round"/>
<path d="M51.5644 114.148L47.9219 186.136" stroke="white" stroke-width="1.4815" stroke-linecap="round" stroke-linejoin="round"/>
<path d="M18.2031 30.0235L63.1951 14.3828L108.188 30.0235H18.2031Z" stroke="white" stroke-width="1.4815" stroke-linecap="round" stroke-linejoin="round"/>
<path d="M47.9219 30.0235L63.1951 14.3828" stroke="white" stroke-width="1.4815" stroke-linecap="round" stroke-linejoin="round"/>
<path d="M78.4696 30.0235L63.1953 14.3828" stroke="white" stroke-width="1.4815" stroke-linecap="round" stroke-linejoin="round"/>
<path d="M70.4581 0.742188H55.9384C55.2974 0.742188 54.7996 1.30223 54.8747 1.93927L56.6012 16.5251H69.7944L71.5208 1.93927C71.5959 1.30223 71.1001 0.742188 70.4581 0.742188Z" stroke="white" stroke-width="1.4815" stroke-linecap="round" stroke-linejoin="round"/>
<path d="M300.85 153.971L289.268 104.618C288.097 99.6285 283.646 96.1016 278.521 96.1016H261.211" stroke="white" stroke-width="1.4815" stroke-linecap="round" stroke-linejoin="round"/>
<path d="M256.883 85.7891H178.725L155.965 182.772C155.342 185.429 157.358 187.972 160.087 187.972H275.523C278.252 187.972 280.268 185.428 279.645 182.772L256.885 85.7891H256.883Z" stroke="white" stroke-width="1.4815" stroke-linecap="round" stroke-linejoin="round"/>
<path d="M176.301 96.1016H259.995" stroke="white" stroke-width="1.4815" stroke-linecap="round" stroke-linejoin="round"/>
<path d="M178.369 74.6484H257.656C258.49 74.6484 259.112 75.4178 258.936 76.2336L256.879 85.7903H179.146L177.088 76.2336C176.913 75.4178 177.535 74.6484 178.368 74.6484H178.369Z" stroke="white" stroke-width="1.4815" stroke-linecap="round" stroke-linejoin="round"/>
<path d="M179.144 85.7891H169.624C168.084 85.7891 167.073 87.398 167.74 88.7847L174.646 103.137" stroke="white" stroke-width="1.4815" stroke-linecap="round" stroke-linejoin="round"/>
<path d="M260.292 5.50517L237.764 54.5822H198.236L176.012 6.16786C175.528 5.11106 176.318 3.91599 177.479 3.96834C183.904 4.25476 201.452 4.70615 217.652 2.15402C238.165 -1.07663 254.069 2.07303 259.256 3.35008C260.205 3.58416 260.701 4.61823 260.293 5.50614L260.292 5.50517Z" stroke="white" stroke-width="1.4815" stroke-linecap="round" stroke-linejoin="round"/>
<path d="M259.796 25.9974C259.181 25.8058 258.564 25.6783 257.947 25.5806L262.473 15.7188H173.82L200.871 74.6497H235.422L247.146 49.1107C248.503 49.6964 250.114 50.287 252.041 50.8875C258.915 53.0288 266.222 49.1927 268.364 42.3196C270.505 35.4464 266.669 28.1387 259.796 25.9974ZM262.568 40.5141C261.424 44.1862 257.52 46.2356 253.848 45.0919C252.044 44.5299 250.705 44.0104 249.714 43.5156L255.225 31.5115C256.129 31.4206 257.068 31.5056 257.99 31.793C261.662 32.9367 263.712 36.842 262.568 40.5141Z" stroke="white" stroke-width="1.4815" stroke-linecap="round" stroke-linejoin="round"/>
<path d="M268.221 12.1641H168.074C167.099 12.1641 166.301 12.9621 166.301 13.9369C166.301 14.9117 167.099 15.7098 168.074 15.7098H268.221C269.196 15.7098 269.994 14.9117 269.994 13.9369C269.994 12.9621 269.196 12.1641 268.221 12.1641Z" stroke="white" stroke-width="1.4815" stroke-linecap="round" stroke-linejoin="round"/>
</svg>

<svg xmlns="http://www.w3.org/2000/svg" width="302" height="189" fill="none" viewBox="0 0 302 189"><path stroke="#fff" stroke-linecap="round" stroke-linejoin="round" stroke-width="1.482" d="M128.115 102.008a4.356 4.356 0 0 1-4.356-4.355V54.376c0-8.24-6.704-14.946-14.944-14.946h-3.596a4.356 4.356 0 0 1 0-8.711h3.596c13.044 0 23.656 10.612 23.656 23.657v43.277a4.356 4.356 0 0 1-4.356 4.355M18.206 30.023H2.571c-1.462 0-2.332 1.635-1.514 2.848L23.4 66.018M94.761 102.008H31.63v12.14H94.76z"/><path stroke="#fff" stroke-linecap="round" stroke-linejoin="round" stroke-width="1.482" d="M31.953 102.011h62.484a3.885 3.885 0 0 0 3.846-3.33l9.905-68.658H18.203l9.905 68.658a3.884 3.884 0 0 0 3.845 3.33M51.564 102.011l-3.642-71.988M74.828 102.011l3.643-71.988M94.44 114.148H31.955a3.89 3.89 0 0 0-3.846 3.331l-9.265 64.217a3.885 3.885 0 0 0 3.846 4.439h81.012a3.885 3.885 0 0 0 3.846-4.439l-9.264-64.217a3.886 3.886 0 0 0-3.846-3.331M74.828 114.148l3.643 71.988M51.564 114.148l-3.642 71.988"/><path stroke="#fff" stroke-linecap="round" stroke-linejoin="round" stroke-width="1.482" d="m18.203 30.024 44.992-15.641 44.993 15.64zM47.922 30.024l15.273-15.641M78.47 30.024 63.195 14.382"/><path stroke="#fff" stroke-linecap="round" stroke-linejoin="round" stroke-width="1.482" d="M70.458.742h-14.52c-.64 0-1.138.56-1.063 1.197L56.6 16.525h13.193L71.521 1.94A1.07 1.07 0 0 0 70.458.742M300.85 153.971l-11.582-49.353a11.04 11.04 0 0 0-10.747-8.516h-17.31M256.883 85.79h-78.158l-22.76 96.982a4.233 4.233 0 0 0 4.122 5.2h115.436c2.729 0 4.745-2.544 4.122-5.2l-22.76-96.983zM176.301 96.102h83.694"/><path stroke="#fff" stroke-linecap="round" stroke-linejoin="round" stroke-width="1.482" d="M178.369 74.648h79.287c.834 0 1.456.77 1.28 1.586l-2.057 9.556h-77.733l-2.058-9.556a1.31 1.31 0 0 1 1.28-1.586zM179.144 85.79h-9.52c-1.54 0-2.551 1.608-1.884 2.995l6.906 14.352M260.292 5.505l-22.528 49.077h-39.528L176.012 6.168c-.484-1.057.306-2.252 1.467-2.2 6.425.287 23.973.738 40.173-1.814 20.513-3.23 36.417-.081 41.604 1.196a1.55 1.55 0 0 1 1.037 2.156z"/><path stroke="#fff" stroke-linecap="round" stroke-linejoin="round" stroke-width="1.482" d="M259.796 25.997a13 13 0 0 0-1.849-.416l4.526-9.862H173.82l27.051 58.93h34.551l11.724-25.538c1.357.585 2.968 1.176 4.895 1.777 6.874 2.14 14.181-1.695 16.323-8.568 2.141-6.874-1.695-14.181-8.568-16.323m2.772 14.517a6.964 6.964 0 0 1-8.72 4.578c-1.804-.562-3.143-1.082-4.134-1.576l5.511-12.004a6.965 6.965 0 0 1 7.343 9.003M268.221 12.164H168.074c-.975 0-1.773.798-1.773 1.773s.798 1.773 1.773 1.773h100.147c.975 0 1.773-.798 1.773-1.773s-.798-1.773-1.773-1.773"/></svg>
